icon-themes/breeze_svg/cmd/sc_inserttitlefield.svg

<svg viewBox="0 0 16 16" xmlns="http://www.w3.org/2000/svg"><path d="m3 2v12h7l3-3v-2-7h-1-5zm1 1h3 5v6 1h-3v3h-5z" fill="#4d4d4d"/><path d="m5 4v2h6v-2z" fill="#1d99f3"/></svg>

<svg xmlns="http://www.w3.org/2000/svg" viewBox="0 0 16 16">
 <path 
     style="fill:#4d4d4d" 
     d="M 3 2 L 3 14 L 10 14 L 13 11 L 13 9 L 13 2 L 12 2 L 7 2 L 3 2 z M 4 3 L 7 3 L 12 3 L 12 9 L 12 10 L 9 10 L 9 13 L 4 13 L 4 3 z "
     />
 <path 
     style="fill:#1d99f3" 
     d="M 5 4 L 5 6 L 11 6 L 11 4 L 5 4 z "
     />
 </svg>
